packages/kaspersky-hexa-ui-icons/src/iconsSVGs/64x42/FlagHt.svg

<svg xmlns="http://www.w3.org/2000/svg" width="64" height="42" fill="none" viewBox="0 0 64 42"><g clip-path="url(#a)"><rect width="64" height="42" fill="#fff" rx="5"/><path fill="#112ebc" fill-rule="evenodd" d="M0 21h64V0H0z" clip-rule="evenodd"/><path fill="#e3264a" fill-rule="evenodd" d="M0 42h64V21H0z" clip-rule="evenodd"/><g clip-path="url(#b)"><rect width="20" height="17" x="22" y="14" fill="url(#c)" rx="1"/><mask id="d" width="20" height="17" x="22" y="14" maskUnits="userSpaceOnUse" style="mask-type:luminance"><rect width="20" height="17" x="22" y="14" fill="#fff" rx="1"/></mask><g mask="url(#d)"><mask id="e" fill="#fff"><path fill-rule="evenodd" d="m22.2001 28 4.4176-2.2088a5.6 5.6 0 0 1 2.5044-.5912h5.756c.8694 0 1.7268.2024 2.5044.5912L41.8001 28v2.8h-19.6z" clip-rule="evenodd"/></mask><path fill="#aabcae" fill-rule="evenodd" stroke="#366c14" stroke-width="3" d="m22.2001 28 4.4176-2.2088a5.6 5.6 0 0 1 2.5044-.5912h5.756c.8694 0 1.7268.2024 2.5044.5912L41.8001 28v2.8h-19.6z" clip-rule="evenodd" mask="url(#e)"/><circle cx="32" cy="21" r="4" fill="#d4b872"/><mask id="f" fill="#fff"><path fill-rule="evenodd" d="M25.0002 23.9129c0-1.1739 1.3579-1.8266 2.2746-1.0932l3.8508 3.0807a1.4 1.4 0 0 0 1.7492 0l3.8508-3.0807c.9167-.7334 2.2746-.0807 2.2746 1.0932V26.6c0 .7732-.6268 1.4-1.4 1.4h-11.2c-.7732 0-1.4-.6268-1.4-1.4z" clip-rule="evenodd"/></mask><path fill="#c28321" fill-rule="evenodd" stroke="#0d3488" stroke-width="3" d="M25.0002 23.9129c0-1.1739 1.3579-1.8266 2.2746-1.0932l3.8508 3.0807a1.4 1.4 0 0 0 1.7492 0l3.8508-3.0807c.9167-.7334 2.2746-.0807 2.2746 1.0932V26.6c0 .7732-.6268 1.4-1.4 1.4h-11.2c-.7732 0-1.4-.6268-1.4-1.4z" clip-rule="evenodd" mask="url(#f)"/><path fill="#216c30" fill-rule="evenodd" d="M28.995 17.995c-.441-.441-.1287-1.195.4949-1.195H34.51c.6237 0 .936.754.495 1.195l-2.51 2.51a.7.7 0 0 1-.99 0z" clip-rule="evenodd"/></g></g></g><defs><clipPath id="a"><rect width="64" height="42" fill="#fff" rx="5"/></clipPath><clipPath id="b"><path fill="#fff" d="M22.2001 14.0001h21v16.8h-21z"/></clipPath><linearGradient id="c" x1="22" x2="22" y1="14" y2="31" gradientUnits="userSpaceOnUse"><stop stop-color="#fff"/><stop offset="1" stop-color="#f0f0f0"/></linearGradient></defs></svg>

<svg width="64" height="42" viewBox="0 0 64 42" fill="none" xmlns="http://www.w3.org/2000/svg">
<g clip-path="url(#clip0_37941_2257)">
<rect width="64" height="42" rx="5" fill="white"/>
<path fill-rule="evenodd" clip-rule="evenodd" d="M0 21H64V0H0V21Z" fill="#112EBC"/>
<path fill-rule="evenodd" clip-rule="evenodd" d="M0 42H64V21H0V42Z" fill="#E3264A"/>
<g clip-path="url(#clip1_37941_2257)">
<rect x="22.2001" y="14.0001" width="19.6" height="16.8" rx="1.4" fill="url(#paint0_linear_37941_2257)"/>
<mask id="mask0_37941_2257" style="mask-type:luminance" maskUnits="userSpaceOnUse" x="22" y="14" width="20" height="17">
<rect x="22.2001" y="14.0001" width="19.6" height="16.8" rx="1.4" fill="white"/>
</mask>
<g mask="url(#mask0_37941_2257)">
<mask id="path-6-inside-1_37941_2257" fill="white">
<path fill-rule="evenodd" clip-rule="evenodd" d="M22.2001 28L26.6177 25.7912C27.3953 25.4024 28.2527 25.2 29.1221 25.2H34.8781C35.7475 25.2 36.6049 25.4024 37.3825 25.7912L41.8001 28V30.8H22.2001V28Z"/>
</mask>
<path fill-rule="evenodd" clip-rule="evenodd" d="M22.2001 28L26.6177 25.7912C27.3953 25.4024 28.2527 25.2 29.1221 25.2H34.8781C35.7475 25.2 36.6049 25.4024 37.3825 25.7912L41.8001 28V30.8H22.2001V28Z" fill="#AABCAE" stroke="#366C14" stroke-width="2.8" mask="url(#path-6-inside-1_37941_2257)"/>
<circle cx="32" cy="21" r="4.2" fill="#D4B872"/>
<mask id="path-8-inside-2_37941_2257" fill="white">
<path fill-rule="evenodd" clip-rule="evenodd" d="M25.0002 23.9129C25.0002 22.739 26.3581 22.0863 27.2748 22.8197L31.1256 25.9004C31.6369 26.3094 32.3635 26.3094 32.8748 25.9004L36.7256 22.8197C37.6423 22.0863 39.0002 22.739 39.0002 23.9129V26.6C39.0002 27.3732 38.3734 28 37.6002 28H26.4002C25.627 28 25.0002 27.3732 25.0002 26.6V23.9129Z"/>
</mask>
<path fill-rule="evenodd" clip-rule="evenodd" d="M25.0002 23.9129C25.0002 22.739 26.3581 22.0863 27.2748 22.8197L31.1256 25.9004C31.6369 26.3094 32.3635 26.3094 32.8748 25.9004L36.7256 22.8197C37.6423 22.0863 39.0002 22.739 39.0002 23.9129V26.6C39.0002 27.3732 38.3734 28 37.6002 28H26.4002C25.627 28 25.0002 27.3732 25.0002 26.6V23.9129Z" fill="#C28321" stroke="#0D3488" stroke-width="2.8" mask="url(#path-8-inside-2_37941_2257)"/>
<path fill-rule="evenodd" clip-rule="evenodd" d="M28.995 17.995C28.554 17.554 28.8663 16.8 29.4899 16.8H34.51C35.1337 16.8 35.446 17.554 35.005 17.995L32.495 20.505C32.2216 20.7784 31.7784 20.7784 31.505 20.505L28.995 17.995Z" fill="#216C30"/>
</g>
</g>
</g>
<defs>
<linearGradient id="paint0_linear_37941_2257" x1="22.2001" y1="14.0001" x2="22.2001" y2="30.8001" gradientUnits="userSpaceOnUse">
<stop stop-color="white"/>
<stop offset="1" stop-color="#F0F0F0"/>
</linearGradient>
<clipPath id="clip0_37941_2257">
<rect width="64" height="42" rx="5" fill="white"/>
</clipPath>
<clipPath id="clip1_37941_2257">
<rect width="21" height="16.8" fill="white" transform="translate(22.2001 14.0001)"/>
</clipPath>
</defs>
</svg>
